X: 21961
T: Kitty Lie Over
R: jig
M: 6/8
K: Dmajor
|:B|AFD DFA|ded B2 A|ABA F2 D|GFG E2 B|
AFD DF/G/A|df/e/d B2 A|ABA F2 E|EDD D2:|
|:e|fdd e^de|fdd d2 e|f2 f def|g2 f e2 g|
fed B2 d|A2 d F2 G|ABA F2 E|EDD D2:|

